icons/mobile/24/svg/hockey-24.svg

<svg width="24" height="24" viewBox="0 0 24 24" fill="none" xmlns="http://www.w3.org/2000/svg">
<path fill-rule="evenodd" clip-rule="evenodd" d="M17.1719 4.37556C17.4134 3.95711 17.9487 3.81383 18.3672 4.05525C18.7857 4.29687 18.9291 4.83207 18.6875 5.25056L10.4609 19.5025C9.97926 20.3374 9.11364 20.8709 8.16113 20.9342L7.96973 20.94L4.56738 20.9381C2.52709 20.9377 0.874122 19.2823 0.874023 17.2428C0.874182 15.326 2.33258 13.7441 4.22949 13.5601L4.85645 13.5064C5.49532 13.4599 6.16986 13.4348 6.87598 13.4371C8.72053 13.4448 10.3411 13.6465 11.6738 13.899L17.1719 4.37556ZM7 19.1881L7.96973 19.189C8.37273 19.189 8.74495 18.9748 8.94531 18.6275L10.7432 15.5113C9.65772 15.3334 8.39937 15.2014 7 15.1881V19.1881ZM5.25 15.2359C4.9583 15.254 4.67424 15.2755 4.39844 15.3023C3.38765 15.4004 2.62418 16.2378 2.62402 17.2428C2.62412 18.2496 3.3892 19.0786 4.36914 19.1783L4.56836 19.1881H5.25V15.2359Z" fill="black"/>
<path fill-rule="evenodd" clip-rule="evenodd" d="M17.752 13.44C18.4389 13.454 19.1428 13.496 19.8438 13.565C21.7147 13.754 23.125 15.3338 23.125 17.2408C23.125 19.2808 21.4658 20.94 19.4268 20.94H16.0303C15.0073 20.94 14.053 20.3895 13.54 19.5015L12.8555 18.316L13.8652 16.566L15.0547 18.6265C15.2557 18.9735 15.6303 19.19 16.0303 19.19H17V15.1842C16.1897 15.1908 15.3814 15.2423 14.5762 15.3326L15.6367 13.4947C16.3417 13.4517 17.047 13.428 17.752 13.44ZM18.75 19.19H19.4268C20.5008 19.19 21.375 18.3158 21.375 17.2408C21.375 16.2518 20.6259 15.4032 19.6689 15.3062C19.3628 15.2762 19.0558 15.2511 18.75 15.232V19.19Z" fill="black"/>
<path d="M5.63184 4.05525C6.05177 3.81429 6.58709 3.95774 6.82715 4.37459L11.3291 12.1724H9.30859L5.3125 5.24959C5.07059 4.8307 5.21309 4.29633 5.63184 4.05525Z" fill="black"/>
</svg>

<!-- This Source Code Form is subject to the terms of the Mozilla Public
   - License, v. 2.0. If a copy of the MPL was not distributed with this
   - file, You can obtain one at http://mozilla.org/MPL/2.0/. -->
<svg xmlns="http://www.w3.org/2000/svg" width="24" height="24" fill="none" viewBox="0 0 24 24">
    <path fill="#000" fill-rule="evenodd" d="M17.172 4.376a.875.875 0 0 1 1.515.875l-8.226 14.252a2.88 2.88 0 0 1-2.3 1.431l-.191.006-3.403-.002a3.695 3.695 0 0 1-3.693-3.695 3.7 3.7 0 0 1 3.355-3.683l.627-.054a26.4 26.4 0 0 1 6.817.393zM7 19.188l.97.001c.403 0 .775-.214.975-.561l1.798-3.117A24.6 24.6 0 0 0 7 15.188zm-1.75-3.952q-.438.027-.852.066a1.946 1.946 0 0 0-.03 3.876l.2.01h.682zm12.502-1.796c.687.014 1.39.056 2.092.125 1.87.189 3.281 1.769 3.281 3.676 0 2.04-1.66 3.699-3.698 3.699H16.03a2.88 2.88 0 0 1-2.49-1.439l-.684-1.185 1.01-1.75 1.189 2.06c.2.348.575.564.975.564H17v-4.006q-1.216.012-2.424.149l1.06-1.838a27 27 0 0 1 2.116-.055m.998 5.75h.677a1.95 1.95 0 0 0 1.948-1.95c0-.988-.75-1.837-1.706-1.934q-.46-.045-.919-.074z" clip-rule="evenodd" />
    <path fill="#000" d="M5.632 4.055a.876.876 0 0 1 1.195.32l4.502 7.797H9.31L5.313 5.25a.873.873 0 0 1 .319-1.195" />
</svg>
